packages/core/src/svgs/tokens/branded/METF.svg

<svg width="24" height="24" viewBox="0 0 24 24" fill="none" xmlns="http://www.w3.org/2000/svg">
<path d="M17.0455 11.9221C17.0567 12.3332 16.7234 12.6777 16.2956 12.6888C15.8678 12.7 15.5178 12.3777 15.501 11.9666C15.4988 11.8656 15.5167 11.7654 15.5537 11.6714C15.5905 11.5776 15.6457 11.4919 15.7161 11.4195C15.7864 11.3471 15.8704 11.2894 15.9632 11.2499C16.056 11.2102 16.1557 11.1894 16.2567 11.1888C16.6789 11.1832 17.0345 11.5054 17.0455 11.9221ZM7.72287 12.7221C8.13956 12.7221 8.47847 12.3833 8.47847 11.9721C8.47847 11.5554 8.14512 11.2221 7.72287 11.2221C7.30618 11.2221 6.96729 11.5554 6.96729 11.9721C6.96729 12.3833 7.30063 12.7166 7.72287 12.7166V12.7221Z" fill="#5B0B0B"/>
<path fill-rule="evenodd" clip-rule="evenodd" d="M17.0956 5.16621C17.0401 5.33844 16.9288 5.39401 16.7623 5.33288C15.1622 4.7773 13.5509 4.68841 11.873 4.68841C10.4286 4.68841 8.92848 4.71063 7.57286 5.23288C6.85615 5.51068 6.2839 3.66614 4.1449 3.66614C3.55599 3.67725 2.93374 3.78837 2.68928 4.12727C2.4226 4.49952 2.13369 4.86064 2.05036 5.32733C1.93923 6.0107 2.01147 6.7163 2.27259 7.42744C2.41149 7.78301 2.54483 8.1497 2.67816 8.5275C2.75594 8.73862 2.9004 8.89968 3.04485 9.06639C3.12819 9.1609 3.21152 9.25527 3.28376 9.35535C3.32695 9.4181 3.34467 9.49484 3.33333 9.57016C3.32197 9.64548 3.28241 9.71367 3.22263 9.76086C2.03369 10.6942 2.00036 12.5388 2.28925 13.8833C2.7115 15.8168 3.52265 17.3224 5.31719 18.4058C6.68392 19.2281 8.22845 19.3669 9.80079 19.5169C9.84111 19.5213 9.87961 19.5367 9.91189 19.5614C10.4918 20.0633 11.234 20.3376 12.0008 20.3336C12.6454 20.3392 13.7621 20.267 14.101 19.6225C14.1287 19.5614 14.1899 19.5169 14.2621 19.5114C15.5788 19.3669 16.9956 19.2891 18.1901 18.6558C19.1738 18.1612 20.0174 17.4272 20.6436 16.5215C21.2697 15.6157 21.6582 14.5672 21.7736 13.4722C21.8538 12.845 21.8538 12.2103 21.7736 11.5832C21.6514 10.711 20.8514 10.2331 20.6679 9.53308C20.6622 9.51273 20.6608 9.49134 20.6637 9.47021C20.6665 9.44921 20.6736 9.42899 20.6847 9.41084C21.4069 8.1497 22.207 7.03297 21.9513 5.39401C21.8736 4.89397 21.4236 3.94948 20.8291 3.80503C20.0809 3.62073 19.2994 3.62073 18.5512 3.80503C18.2264 3.9182 17.929 4.09833 17.6783 4.33378C17.4274 4.56922 17.2289 4.85472 17.0956 5.17177V5.16621ZM19.5068 10.9998C19.4526 11.0382 19.3902 11.0632 19.3245 11.0728C19.2589 11.0824 19.1919 11.0765 19.129 11.0554L18.1011 10.7276C18.0345 10.711 17.9679 10.7832 17.9956 10.8498C18.2178 11.3388 18.3789 12.4776 17.9011 12.9611C17.4011 13.4611 16.9011 13.7722 16.2956 13.7945C15.9844 13.8055 15.6454 13.8111 15.2733 13.5833C14.9954 13.4166 14.5899 12.7722 14.1899 13.0999C14.1712 13.1138 14.1558 13.1311 14.1443 13.1512C14.1327 13.1713 14.1256 13.1936 14.1233 13.2166L14.0399 13.8444C14.0343 13.9056 14.0565 13.9555 14.1065 14C14.4954 14.2945 14.5899 14.4445 14.5954 14.689C14.6065 15.4778 13.1953 16.1834 12.6175 16.5001C12.4787 16.5779 12.4509 16.7779 12.5731 16.889L13.0009 17.2779C13.5399 17.7446 14.3399 17.6669 14.8955 17.2724C15.1399 17.1002 15.2844 16.828 15.4232 16.5668L15.5233 16.3835C15.5844 16.2724 15.6677 16.2057 15.7677 16.1668C15.9344 16.1112 16.1121 16.2001 16.1566 16.3667C16.2677 16.7779 16.1899 17.1557 15.9177 17.5001C15.651 17.8336 15.3566 18.0558 15.0232 18.178C14.9677 18.2002 14.9288 18.2335 14.9011 18.2835C14.8749 18.331 14.867 18.3863 14.8788 18.4391C14.8955 18.5113 14.9344 18.5502 15.0066 18.5669C15.8289 18.7002 17.4123 18.2113 18.1456 17.7614C20.568 16.2612 22.4403 12.261 19.8901 9.93314C19.3456 9.43314 18.7124 8.66639 18.3624 8.02191C18.1011 7.54411 18.1512 6.7663 18.1956 6.22737C18.2345 5.76068 18.6067 5.35512 18.9013 5.03288L18.9401 4.98843C19.1512 4.76064 19.7012 4.6773 19.729 5.13288C19.7401 5.30512 19.7124 5.46623 19.6402 5.62735C19.6069 5.69957 19.6512 5.78846 19.7346 5.79957C20.0901 5.87181 20.9735 5.93848 21.0235 5.4329C21.0791 4.94954 20.4679 4.46617 19.979 4.42174C18.8512 4.32172 18.0734 4.90508 17.5734 5.82736L17.4123 6.1107C17.2678 6.34405 17.079 6.39406 16.8456 6.26072C15.501 5.48845 13.4009 5.43845 11.8676 5.46068C10.3897 5.4829 8.30623 5.54401 6.97839 6.28294C6.93226 6.30767 6.88163 6.32285 6.82951 6.32754C6.77739 6.33225 6.72486 6.32639 6.67507 6.3103C6.62526 6.29423 6.57921 6.26826 6.53969 6.23396C6.50016 6.19966 6.46797 6.15775 6.44503 6.1107C6.05612 5.24399 5.41164 4.51063 4.40603 4.41063C3.932 4.37072 3.46123 4.51833 3.09485 4.82175C2.90596 4.96621 2.81707 5.1551 2.82261 5.3829C2.84485 5.93848 3.78378 5.87181 4.1449 5.79957C4.16262 5.79603 4.17932 5.78861 4.19383 5.77782C4.20832 5.76705 4.22025 5.75319 4.22875 5.73726C4.23724 5.72131 4.2421 5.70368 4.24299 5.68565C4.24385 5.6676 4.24072 5.64958 4.23379 5.6329C4.12268 5.35512 4.0449 5.09954 4.27269 4.86064C4.30043 4.83052 4.33771 4.81089 4.37825 4.80508C4.91161 4.74952 5.63943 5.67735 5.69499 6.21072C5.75054 6.77741 5.8061 7.53855 5.49497 8.03303C5.03903 8.7138 4.52205 9.35159 3.95045 9.93872C3.56768 10.3371 3.27526 10.8132 3.0931 11.3348C2.91093 11.8563 2.84332 12.411 2.89485 12.9611C2.96345 13.9901 3.29733 14.9838 3.86398 15.8455C4.43062 16.707 5.21073 17.4073 6.12834 17.878C6.99505 18.328 8.18401 18.4335 9.14517 18.5613C9.23961 18.5725 9.28406 18.5336 9.28961 18.4391C9.30073 18.3224 9.24517 18.2391 9.1285 18.2002C8.81746 18.1111 8.53243 17.9485 8.29745 17.7261C8.06248 17.5038 7.88446 17.228 7.77843 16.9223C7.71175 16.7279 7.66732 16.2335 7.93955 16.1445C8.10622 16.089 8.31734 16.1168 8.41735 16.2835C8.6007 16.5946 8.73403 17.0057 9.03404 17.2113C9.80079 17.7335 10.5341 17.6613 11.2398 16.989C11.3175 16.9112 11.573 16.6279 11.4063 16.5223C10.9175 16.2167 9.13961 15.4556 9.14517 14.689C9.14517 14.4556 9.33962 14.2223 9.75633 14C9.77759 13.9908 9.79561 13.9751 9.80753 13.9551C9.81946 13.9353 9.8249 13.9121 9.82296 13.8889C9.81181 13.7167 9.78407 13.5223 9.74518 13.3055C9.67854 12.9 9.17294 12.8666 8.9896 13.1777C8.7007 13.6611 8.16177 13.7889 7.72286 13.7945C7.05617 13.8055 6.43392 13.4611 5.95612 13.0055C5.51719 12.5889 5.66721 11.361 5.81166 10.8665C5.83944 10.7832 5.7561 10.7054 5.67276 10.7331C5.33386 10.8332 5.00606 10.9387 4.68383 11.061C4.31714 11.1998 3.92267 10.8109 4.22825 10.4998C4.43937 10.2832 4.73383 10.0498 5.03939 9.96088C6.03945 9.68307 7.05061 9.66648 8.07844 9.91084C9.61191 10.2887 10.3119 12.1888 10.6564 13.55C10.6841 13.6611 10.7897 13.7389 10.9063 13.7277C11.5953 13.6778 12.2787 13.6833 12.962 13.7444C12.9954 13.7444 13.0287 13.7221 13.0343 13.6888C13.4454 12.411 14.0898 10.3276 15.6177 9.93872C16.2759 9.74932 16.9637 9.68528 17.6456 9.74984C18.5068 9.86093 18.9512 9.94974 19.5513 10.4942C19.7068 10.6332 19.6846 10.8943 19.5068 10.9998ZM17.3289 12.0777V11.7999C17.3345 11.2999 16.9178 10.8831 16.4178 10.8831L16.0788 10.8777C15.5788 10.8777 15.151 11.2832 15.151 11.7776V12.0554C15.1399 12.5554 15.5566 12.9722 16.0566 12.9778H16.4011C16.9011 12.9778 17.3233 12.5721 17.3289 12.0777ZM8.82848 12.1332C8.82292 12.6055 8.41179 13.0111 7.92843 13.0055H7.53952C7.05617 12.9999 6.65059 12.5889 6.6617 12.111V11.761C6.6617 11.2832 7.07283 10.8887 7.55619 10.8943H7.9451C8.42846 10.8998 8.83404 11.3055 8.82848 11.7832V12.1332Z" fill="#5B0B0B"/>
</svg>

<svg xmlns="http://www.w3.org/2000/svg" width="24" height="24" fill="none" viewBox="0 0 24 24">
    <path fill="#5B0B0B" d="M17.046 11.922a.757.757 0 0 1-.75.767.763.763 0 0 1-.795-.722.76.76 0 0 1 .756-.778.767.767 0 0 1 .788.733m-9.323.8a.755.755 0 0 0 .755-.75.75.75 0 0 0-.755-.75.747.747 0 1 0 0 1.495z"/>
    <path fill="#5B0B0B" fill-rule="evenodd" d="M17.096 5.166q-.084.258-.334.167c-1.6-.556-3.211-.645-4.889-.645-1.444 0-2.945.023-4.3.545-.717.278-1.29-1.567-3.428-1.567-.589.011-1.211.122-1.456.461-.266.373-.555.734-.639 1.2a4.1 4.1 0 0 0 .223 2.1q.206.534.405 1.1c.078.212.222.373.367.54.083.094.167.188.239.288a.3.3 0 0 1-.061.406c-1.19.933-1.223 2.778-.934 4.122.422 1.934 1.234 3.44 3.028 4.523 1.367.822 2.911.96 4.484 1.11q.062.007.11.045a3.17 3.17 0 0 0 2.09.773c.644.005 1.761-.067 2.1-.712a.19.19 0 0 1 .161-.11c1.317-.145 2.734-.223 3.928-.856a6.57 6.57 0 0 0 3.584-5.184c.08-.627.08-1.262 0-1.889-.123-.872-.923-1.35-1.106-2.05a.16.16 0 0 1 .017-.122c.722-1.261 1.522-2.378 1.266-4.017-.077-.5-.527-1.445-1.122-1.589a4.76 4.76 0 0 0-2.278 0 2.46 2.46 0 0 0-1.455 1.367zM19.506 11a.42.42 0 0 1-.377.055l-1.028-.327c-.066-.017-.133.055-.105.122.222.489.383 1.628-.095 2.111-.5.5-1 .811-1.605.833-.312.011-.65.017-1.023-.21-.278-.167-.683-.812-1.083-.484a.17.17 0 0 0-.067.117l-.083.627a.18.18 0 0 0 .067.156c.388.294.483.444.488.689.011.789-1.4 1.494-1.978 1.811a.243.243 0 0 0-.044.389l.428.389c.539.467 1.339.389 1.895-.006.244-.172.388-.444.527-.705l.1-.183a.46.46 0 0 1 .245-.217.3.3 0 0 1 .389.2c.11.41.033.789-.24 1.133-.266.334-.56.556-.894.678a.23.23 0 0 0-.144.261.15.15 0 0 0 .128.128c.822.133 2.405-.356 3.139-.806 2.422-1.5 4.294-5.5 1.744-7.828-.544-.5-1.178-1.267-1.528-1.911-.26-.478-.21-1.256-.166-1.795.038-.466.41-.872.705-1.194l.04-.045c.21-.227.76-.31.788.145a1 1 0 0 1-.089.494.122.122 0 0 0 .095.173c.355.072 1.239.138 1.288-.367.056-.483-.555-.967-1.044-1.011-1.128-.1-1.906.483-2.406 1.405l-.16.284q-.217.35-.567.15c-1.345-.773-3.445-.823-4.978-.8-1.478.022-3.562.083-4.89.822a.39.39 0 0 1-.533-.172c-.389-.867-1.033-1.6-2.039-1.7a1.82 1.82 0 0 0-1.311.41.65.65 0 0 0-.272.562c.022.555.96.489 1.322.417a.122.122 0 0 0 .089-.167c-.111-.278-.19-.533.039-.772a.18.18 0 0 1 .105-.056c.534-.055 1.261.872 1.317 1.406.056.566.111 1.328-.2 1.822-.456.68-.973 1.319-1.545 1.906a3.84 3.84 0 0 0-1.055 3.022 5.97 5.97 0 0 0 3.233 4.917c.867.45 2.056.555 3.017.683.095.012.14-.027.145-.122.01-.117-.045-.2-.161-.239a2.02 2.02 0 0 1-1.35-1.278c-.067-.194-.112-.689.16-.777.167-.056.378-.028.478.139.184.31.317.722.617.927q1.149.785 2.206-.222c.078-.078.333-.361.166-.467-.489-.305-2.266-1.066-2.26-1.833 0-.233.194-.467.61-.689a.11.11 0 0 0 .067-.111 5 5 0 0 0-.078-.583c-.066-.406-.572-.44-.755-.128-.29.483-.828.61-1.267.616-.667.011-1.29-.333-1.767-.789-.439-.416-.289-1.644-.144-2.139.027-.083-.056-.16-.14-.133-.338.1-.666.206-.988.328-.367.139-.761-.25-.456-.561.211-.217.506-.45.811-.54a6 6 0 0 1 3.04-.05c1.533.379 2.233 2.279 2.577 3.64a.236.236 0 0 0 .25.178q1.033-.075 2.056.016c.033 0 .067-.022.072-.055.411-1.278 1.056-3.361 2.584-3.75a5.5 5.5 0 0 1 2.028-.19c.86.112 1.305.2 1.905.745a.32.32 0 0 1-.044.506m-2.177 1.078V11.8a.916.916 0 0 0-.911-.917l-.34-.005c-.5 0-.927.405-.927.9v.277c-.011.5.406.917.906.923h.344c.5 0 .922-.406.928-.9m-8.5.055a.9.9 0 0 1-.9.873h-.39a.894.894 0 0 1-.877-.895v-.35c0-.478.41-.872.894-.867h.39a.9.9 0 0 1 .882.89z" clip-rule="evenodd"/>
</svg>
